X:26
T:Old Gorman's Reel
N:Similar to "Long Strand", #165, #531
N:Noel Hill: The Irish Concertina
R:reel
I:abc2nwc
M:4/4
L:1/8
K:Edor
BE~E2 ~B2ed|(3Bcd AF DEFA|BE~E2 B2ed|(3Bcd Ad Beed|
BE~E2 ~B2ed|(3Bcd AF DEFA|Bd~d2 Beec|dBAF GABc||
~d2ad bdad|d2ad edBc|~d2ad bdad|BdAF FE~E2|
~d2ad bdad|d2ad feed|~f2ef ~d2cd|BcBA Beed||
